X: 11020
T: Drury Lane
R: jig
M: 6/8
K: Fmajor
AB|:c3cBA|d3dcB|c3cBA|BAG AGF|
c3cBA|d3dcB|Acf gae|1 f3fAB:|2 f3fef||
|:gec ceg|afc cAc|bag agf|efg cgc|
dBd dfb|cAc cfa|bag agf|cfef3:|

